img/svg/employment5.svg

<svg width="80" height="80" viewBox="0 0 80 80" fill="none" xmlns="http://www.w3.org/2000/svg">
<circle cx="40" cy="40" r="40" fill="#006AFF"/>
<path d="M44 25.3334H36V28H44V25.3334ZM38.6667 42.6667H41.3333V34.6667H38.6667V42.6667ZM49.3733 33.8534L51.2667 31.96C50.6933 31.28 50.0667 30.64 49.3867 30.08L47.4933 31.9734C45.4267 30.32 42.8267 29.3334 40 29.3334C33.3733 29.3334 28 34.7067 28 41.3334C28 47.96 33.36 53.3334 40 53.3334C46.64 53.3334 52 47.96 52 41.3334C52 38.5067 51.0133 35.9067 49.3733 33.8534ZM40 50.6667C34.84 50.6667 30.6667 46.4934 30.6667 41.3334C30.6667 36.1734 34.84 32 40 32C45.16 32 49.3333 36.1734 49.3333 41.3334C49.3333 46.4934 45.16 50.6667 40 50.6667Z" fill="white"/>
</svg>

<svg width="80" height="80" viewBox="0 0 80 80" fill="none" xmlns="http://www.w3.org/2000/svg"><circle cx="40" cy="40" r="40" fill="#006AFF"/><path d="M44 25.333h-8V28h8v-2.667zm-5.333 17.334h2.666v-8h-2.666v8zm10.706-8.814l1.894-1.893c-.574-.68-1.2-1.32-1.88-1.88l-1.894 1.893A11.948 11.948 0 0040 29.333c-6.627 0-12 5.374-12 12 0 6.627 5.36 12 12 12s12-5.373 12-12a11.95 11.95 0 00-2.627-7.48zM40 50.667a9.326 9.326 0 01-9.333-9.334A9.327 9.327 0 0140 32a9.327 9.327 0 019.333 9.333A9.326 9.326 0 0140 50.667z" fill="#fff"/></svg>
